resources/mmv/ui/img/restrict-nazi.svg

<?xml version="1.0" encoding="UTF-8"?>
<svg xmlns="http://www.w3.org/2000/svg" width="64" height="64" viewBox="0 0 64 64">
  <path fill="#222" fill-rule="evenodd" d="M32.007812 0L12.804688 19.195312l6.398437 6.398438L38.40625 6.3984375 32.007812 0zm12.796876 12.796875l-6.398438 6.398437 19.195312 19.203126L64 32 44.804688 12.796875zM31.992188 19.5c-.893482 0-1.616475.278054-2.171876.832031-.555399.554016-.835937 1.287755-.835937 2.195313 0 1.001899.284042 2.654598.851563 4.964844l.945312 3.859374c.47088 1.909497.743565 3.529321.828125 4.873047h.796875c.15696-1.88595.404108-3.505774.742188-4.873047l.960937-3.859374c.60368-2.45168.90625-4.121774.90625-5.017579 0-.860467-.287628-1.567116-.867187-2.121093-.567482-.565769-1.28689-.853516-2.15625-.853516zM6.3984375 25.601562L0 32l19.203125 19.203125 6.390625-6.398437L6.3984375 25.601562zM44.804688 38.398438L25.601562 57.601562 31.992188 64l19.210937-19.203125-6.398437-6.398437zm-12.773438.359374c-.82104 0-1.518458.279935-2.085938.845704-.567478.56577-.851562 1.247398-.851562 2.037109s.284083 1.461536.851562 2.027344c.579561.553977 1.276938.832031 2.085938.832031.80896 0 1.49502-.278054 2.0625-.832031.57956-.565808.867188-1.237633.867188-2.027344 0-.801503-.287628-1.483131-.867188-2.037109-.56748-.565769-1.25354-.845704-2.0625-.845704z"/>
</svg>

<?xml version="1.0" encoding="UTF-8" standalone="no"?>
<!-- Created with Inkscape (http://www.inkscape.org/) -->

<svg
   xmlns:dc="http://purl.org/dc/elements/1.1/"
   xmlns:cc="http://creativecommons.org/ns#"
   xmlns:rdf="http://www.w3.org/1999/02/22-rdf-syntax-ns#"
   xmlns:svg="http://www.w3.org/2000/svg"
   xmlns="http://www.w3.org/2000/svg"
   xmlns:sodipodi="http://sodipodi.sourceforge.net/DTD/sodipodi-0.dtd"
   xmlns:inkscape="http://www.inkscape.org/namespaces/inkscape"
   version="1.1"
   width="64"
   height="64"
   viewBox="0 0 64 64"
   id="svg2"
   xml:space="preserve"
   style="fill-rule:evenodd"
   inkscape:version="0.91 r13725"
   sodipodi:docname="restrict-nazi.svg"><sodipodi:namedview
     pagecolor="#ffffff"
     bordercolor="#666666"
     borderopacity="1"
     objecttolerance="10"
     gridtolerance="10"
     guidetolerance="10"
     inkscape:pageopacity="0"
     inkscape:pageshadow="2"
     inkscape:window-width="944"
     inkscape:window-height="1002"
     id="namedview98"
     showgrid="false"
     inkscape:zoom="4"
     inkscape:cx="26.314029"
     inkscape:cy="-6.7433453"
     inkscape:window-x="960"
     inkscape:window-y="0"
     inkscape:window-maximized="0"
     inkscape:current-layer="svg2"
     fit-margin-top="0"
     fit-margin-left="0"
     fit-margin-right="0"
     fit-margin-bottom="0"
     showguides="false"
     inkscape:snap-bbox="true"
     inkscape:bbox-nodes="true"
     inkscape:snap-bbox-midpoints="true"
     inkscape:object-nodes="true"
     inkscape:guide-bbox="true"><sodipodi:guide
       position="6.39882,4.7980604"
       orientation="0,1"
       id="guide4315" /><sodipodi:guide
       position="5.20899,-30.12705"
       orientation="0,1"
       id="guide4347" /></sodipodi:namedview><defs
     id="defs147" /><metadata
     id="metadata4245"><rdf:RDF><cc:Work
         rdf:about=""><dc:title /><dc:format>image/svg+xml</dc:format><dc:type
           rdf:resource="http://purl.org/dc/dcmitype/StillImage" /></cc:Work></rdf:RDF></metadata><path
     style="fill:#222;fill-opacity:1;fill-rule:evenodd;stroke:none;stroke-width:1px;stroke-linecap:butt;stroke-linejoin:miter;stroke-opacity:1"
     d="M 32.007812 0 L 12.804688 19.195312 L 19.203125 25.59375 L 38.40625 6.3984375 L 32.007812 0 z M 44.804688 12.796875 L 38.40625 19.195312 L 57.601562 38.398438 L 64 32 L 44.804688 12.796875 z M 31.992188 19.5 C 31.098706 19.5 30.375713 19.778054 29.820312 20.332031 C 29.264913 20.886047 28.984375 21.619786 28.984375 22.527344 C 28.984375 23.529243 29.268417 25.181942 29.835938 27.492188 L 30.78125 31.351562 C 31.25213 33.261059 31.524815 34.880883 31.609375 36.224609 L 32.40625 36.224609 C 32.56321 34.338659 32.810358 32.718835 33.148438 31.351562 L 34.109375 27.492188 C 34.713055 25.040508 35.015625 23.370414 35.015625 22.474609 C 35.015625 21.614142 34.727997 20.907493 34.148438 20.353516 C 33.580956 19.787747 32.861548 19.5 31.992188 19.5 z M 6.3984375 25.601562 L 0 32 L 19.203125 51.203125 L 25.59375 44.804688 L 6.3984375 25.601562 z M 44.804688 38.398438 L 25.601562 57.601562 L 31.992188 64 L 51.203125 44.796875 L 44.804688 38.398438 z M 32.03125 38.757812 C 31.21021 38.757812 30.512792 39.037747 29.945312 39.603516 C 29.377834 40.169286 29.09375 40.850914 29.09375 41.640625 C 29.09375 42.430336 29.377833 43.102161 29.945312 43.667969 C 30.524873 44.221946 31.22225 44.5 32.03125 44.5 C 32.84021 44.5 33.52627 44.221946 34.09375 43.667969 C 34.67331 43.102161 34.960938 42.430336 34.960938 41.640625 C 34.960938 40.839122 34.67331 40.157494 34.09375 39.603516 C 33.52627 39.037747 32.84021 38.757812 32.03125 38.757812 z "
     id="path4145" /></svg>
